app/img/advantages-4.svg

<svg width="112" height="112" viewBox="0 0 112 112" fill="none" xmlns="http://www.w3.org/2000/svg">
<path d="M15.1865 62.6407C14.1382 62.6407 13.2883 63.4907 13.2883 64.5389V72.1317C13.2883 73.18 14.1382 74.0299 15.1865 74.0299C16.2348 74.0299 17.0847 73.18 17.0847 72.1317V64.5389C17.0847 63.4907 16.2348 62.6407 15.1865 62.6407Z" fill="white"/>
<path d="M22.7793 66.4371C21.731 66.4371 20.8811 67.287 20.8811 68.3353V75.9281C20.8811 76.9763 21.731 77.8263 22.7793 77.8263C23.8276 77.8263 24.6775 76.9763 24.6775 75.9281V68.3353C24.6775 67.287 23.8276 66.4371 22.7793 66.4371Z" fill="white"/>
<path d="M92.0138 76.6247C91.129 76.0624 89.9559 76.3241 89.3936 77.2089C88.854 78.0581 89.0706 79.1809 89.8878 79.7681C95.1054 83.2812 96.4871 90.3588 92.9743 95.5762C89.4612 100.794 82.3836 102.176 77.1661 98.6627C71.9485 95.1496 70.5666 88.072 74.0797 82.8546C76.195 79.7128 79.7339 77.8282 83.5213 77.8263C84.5696 77.8263 85.4195 76.9764 85.4195 75.9281C85.4195 74.8798 84.5696 74.0299 83.5213 74.0299C75.1346 74.0316 68.337 80.8316 68.3386 89.2183C68.3403 97.6049 75.1403 104.403 83.527 104.401C91.9137 104.399 98.7113 97.5992 98.7096 89.2126C98.7087 84.1646 96.1993 79.4469 92.0138 76.6247Z" fill="white"/>
<path d="M105.405 82.9104C103.566 76.5394 99.0409 71.2867 93.0122 68.525V26.5751C93.0125 25.9038 92.658 25.2824 92.0802 24.9407L50.3201 0.264263C49.724 -0.0880878 48.9835 -0.0880878 48.3877 0.264263L6.62757 24.9407C6.58771 24.9635 6.55923 24.9977 6.52127 25.0242C6.4833 25.0508 6.44724 25.0812 6.40928 25.1116C6.24437 25.2413 6.10272 25.3979 5.98978 25.5747C5.98978 25.588 5.967 25.5956 5.9594 25.6089V25.6222C5.85239 25.8151 5.77979 26.0251 5.74491 26.2429C5.74491 26.2998 5.72783 26.353 5.72213 26.4099C5.71644 26.4669 5.69556 26.5181 5.69556 26.5751V75.928C5.69532 76.5992 6.04981 77.2206 6.62757 77.5623L48.3877 102.239C48.4378 102.263 48.489 102.285 48.5415 102.303C48.5932 102.329 48.6466 102.352 48.7009 102.372C49.1188 102.546 49.589 102.546 50.0069 102.372C50.0619 102.352 50.1158 102.329 50.1682 102.303C50.2176 102.281 50.2707 102.267 50.3201 102.239L61.6541 95.54C65.1418 107.622 77.7629 114.588 89.8446 111.101C101.926 107.613 108.893 94.9919 105.405 82.9104ZM49.3539 4.1024L59.2245 9.93553L44.5894 18.5837C43.6864 19.1173 43.3867 20.2821 43.9203 21.1852C44.454 22.0882 45.6187 22.3879 46.5218 21.8543L62.9582 12.1488L72.8288 17.982L34.8005 40.447L24.9299 34.6139L40.831 25.2178C41.7341 24.6842 42.0338 23.5194 41.5001 22.6164C40.9665 21.7133 39.8017 21.4136 38.8987 21.9473L21.1981 32.4082L11.3256 26.5751L49.3539 4.1024ZM32.9023 43.7366V56.4108L23.0962 50.6156V37.9414L32.9023 43.7366ZM61.493 83.3475C60.9881 85.2623 60.7359 87.235 60.743 89.2153C60.7435 90.0097 60.7853 90.8036 60.8683 91.5937L51.2521 97.2788V91.1135C51.2521 90.0652 50.4022 89.2153 49.3539 89.2153C48.3056 89.2153 47.4557 90.0652 47.4557 91.1135V97.2788L9.49193 74.846V29.9026L19.2999 35.6978V51.6976C19.2992 52.3695 19.6534 52.9919 20.2319 53.3338L33.8343 61.3726C34.1271 61.5449 34.4607 61.636 34.8005 61.6365C35.8488 61.6365 36.6987 60.7866 36.6987 59.7383V45.9783L47.4557 52.3354V83.5207C47.4557 84.569 48.3056 85.4189 49.3539 85.4189C50.4022 85.4189 51.2521 84.569 51.2521 83.5207V52.3354L85.6548 32.0058C86.5574 31.4721 86.8566 30.3078 86.323 29.4053C85.7894 28.5027 84.6251 28.2035 83.7225 28.7371L49.3539 49.0477L38.5342 42.6527L76.5625 20.1801L89.2158 27.657V67.1963C77.1004 64.0009 64.6884 71.2318 61.493 83.3475ZM83.5213 108.197C73.0378 108.197 64.5394 99.6987 64.5394 89.2153C64.5394 78.7318 73.0378 70.2334 83.5213 70.2334C94.0047 70.2334 102.503 78.7318 102.503 89.2153C102.492 99.694 94 108.186 83.5213 108.197Z" fill="white"/>
<path d="M90.5113 84.0769C89.7757 83.3663 88.6093 83.3663 87.8738 84.0769L80.6739 91.2767L79.1687 89.7715C78.4146 89.0431 77.2131 89.0639 76.4846 89.818C75.774 90.5535 75.774 91.72 76.4846 92.4555L79.3319 95.3028C80.0732 96.0438 81.2747 96.0438 82.016 95.3028L90.5578 86.761C91.2862 86.0069 91.2653 84.8051 90.5113 84.0769Z" fill="white"/>
</svg>

<svg width="112" height="112" viewBox="0 0 112 112" fill="none" xmlns="http://www.w3.org/2000/svg"><path d="M15.187 62.64c-1.049 0-1.899.85-1.899 1.899v7.593a1.898 1.898 0 0 0 3.797 0v-7.593c0-1.048-.85-1.898-1.899-1.898zm7.593 3.797c-1.049 0-1.899.85-1.899 1.898v7.593a1.898 1.898 0 0 0 3.796 0v-7.593c0-1.048-.85-1.898-1.898-1.898zm69.234 10.188a1.898 1.898 0 0 0-2.126 3.143c5.217 3.513 6.6 10.59 3.086 15.808-3.513 5.218-10.59 6.6-15.808 3.087-5.218-3.513-6.6-10.591-3.086-15.808a11.39 11.39 0 0 1 9.441-5.029 1.898 1.898 0 0 0 0-3.796c-8.386.002-15.184 6.802-15.182 15.188.001 8.387 6.801 15.185 15.188 15.183 8.387-.002 15.184-6.802 15.183-15.188a15.185 15.185 0 0 0-6.696-12.588z" fill="#fff"/><path d="M105.405 82.91a22.768 22.768 0 0 0-12.393-14.385v-41.95c0-.671-.354-1.293-.932-1.634L50.32.264a1.898 1.898 0 0 0-1.932 0L6.628 24.941c-.04.023-.069.057-.107.083-.038.027-.074.057-.112.088-.165.13-.306.286-.42.463 0 .013-.022.02-.03.034v.013a1.88 1.88 0 0 0-.214.62c0 .058-.017.111-.023.168-.006.057-.026.108-.026.165v49.353c0 .671.354 1.293.932 1.634l41.76 24.677c.05.024.101.046.154.064.051.026.105.049.159.069.418.174.888.174 1.306 0a1.57 1.57 0 0 0 .161-.069c.05-.022.103-.036.152-.064l11.334-6.699c3.488 12.082 16.109 19.048 28.19 15.561 12.082-3.488 19.049-16.11 15.561-28.19zM49.354 4.102l9.87 5.834-14.635 8.648a1.9 1.9 0 0 0 1.933 3.27l16.436-9.705 9.87 5.833L34.8 40.447l-9.87-5.833 15.901-9.396a1.9 1.9 0 1 0-1.932-3.27l-17.7 10.46-9.873-5.833L49.354 4.102zM32.902 43.737V56.41l-9.806-5.795V37.94l9.806 5.796zm28.591 39.61a22.695 22.695 0 0 0-.75 5.868c0 .795.042 1.589.125 2.379l-9.616 5.685v-6.165a1.898 1.898 0 0 0-3.796 0v6.165L9.492 74.846V29.903l9.808 5.795v16c0 .672.353 1.294.932 1.636l13.602 8.039a1.898 1.898 0 0 0 2.864-1.634v-13.76l10.758 6.356v31.186a1.898 1.898 0 0 0 3.796 0V52.335l34.403-20.33a1.899 1.899 0 0 0-1.933-3.268l-34.368 20.31-10.82-6.394L76.563 20.18l12.653 7.477v39.54C77.1 64 64.688 71.231 61.493 83.346zm22.028 24.85c-10.483 0-18.982-8.498-18.982-18.982 0-10.483 8.499-18.982 18.982-18.982 10.484 0 18.982 8.499 18.982 18.982-.011 10.479-8.503 18.971-18.982 18.982z" fill="#fff"/><path d="M90.511 84.077a1.898 1.898 0 0 0-2.637 0l-7.2 7.2-1.505-1.505a1.898 1.898 0 0 0-2.684 2.683l2.847 2.848a1.898 1.898 0 0 0 2.684 0l8.542-8.542a1.898 1.898 0 0 0-.047-2.684z" fill="#fff"/></svg>
